packages/kaspersky-hexa-ui-icons/src/iconsSVGs/24/Flag.svg

<svg width="24" height="24" viewBox="0 0 24 24" fill="none" xmlns="http://www.w3.org/2000/svg">
<path fill-rule="evenodd" clip-rule="evenodd" d="M5 2C4.44772 2 4 2.44772 4 3V21C4 21.5523 4.44772 22 5 22C5.55228 22 6 21.5523 6 21V13H12V14C12 14.5523 12.4477 15 13 15H20C20.5523 15 21 14.5523 21 14L21 5C21 4.73478 20.8946 4.48043 20.7071 4.29289C20.5196 4.10536 20.2652 4 20 4H13V3C13 2.44772 12.5523 2 12 2H5ZM6 11H13C13.5523 11 14 11.4477 14 12V13H19L19 6H12C11.4477 6 11 5.55228 11 5V4H6V11Z" fill="black"/>
</svg>

<svg xmlns="http://www.w3.org/2000/svg" width="24" height="24" fill="none" viewBox="0 0 24 24"><path fill="#000" fill-rule="evenodd" d="M5 2c-.5523 0-1 .4477-1 1v18c0 .5523.4477 1 1 1s1-.4477 1-1v-8h6v1c0 .5523.4477 1 1 1h7c.5523 0 1-.4477 1-1V5a1 1 0 0 0-1-1h-7V3c0-.5523-.4477-1-1-1zm1 9h7c.5523 0 1 .4477 1 1v1h5V6h-7c-.5523 0-1-.4477-1-1V4H6z"/></svg>
